X:63
T:Toss the Feathers
M:C|
R:Reel
Z:Bruce's 250
K:D
E~B3 d~B3|E~B3 F3A|B~E3 BABc|d2fe dBAF|\
E~B3 d~B3|E~B3 F3A|B~E3 BABc|d2fe dBA2||\
(3Bcd ed e3e|fede fee2|(3gfe be (3gfe be|fede fee2|\
(3Bcd ed e3e|fede faa2|b3f a3f|egfe dBAF||
